X: 7023
T: Chiku's
R: waltz
M: 3/4
K: Dminor
|:A4 A/B/A/G/|Add2c2|B>AG2B2|A4F>G|
A4 A/B/A/G/|Add2^d2|e>^de2f2|e4F>G|
A4 A/B/A/G/|Add2c2|B>AB2d2|e4 d>e|
f>e d>!>!f e>d|e>d !>!f>e d>^c|d4 d/e/d/^c/|d4F>G:|
|:Ac-c2 c/d/c/=B/|cA-A2c2|d>cd2f2|g4 f>g|
a>g f>e f>d|c>=B c>A G>F|d>c B2A2|G4 A>B|
Ac-c2 c/d/c/=B/|cA-A2c2|d>cd2f2|g4 d>e|
f>e d>!>!f e>d|e>d !>!f>e d>^c|d4 d/e/d/^c/|d4F>G:|

